X: 35
P: No. XXX(V).
Q: "Slow"
M: 3/4
L: 1/8
K: G
V: 1
{d2}Tc4 B2 | A2 G2 AB | {d2}Tc4 B2 | {B2}A4 GA |\
{d2}c4 B2 | A2 G2 AB | {d2}c4 B2 | A4 B2 | (cBcde)g | a4 g2 | (ed) B2 dB | {B}A4 :|
V: 2 clef=bass middle=d
fg |\
a4 g2 | f2 g4 | a2 f2 g2 | d2 D2 z2 |\
g2 G2 d2 | B2 c4 | B2 G2 d2 | e4 fg |
a4 g2 | f2 g2 fg | a2 f2 g2 | f2 d2 g2 |\
e2 c2 cB | A2 f2 g2 | c2 d2 G2 | D4 :|

